Yaru++/devices/scalable/audio-speaker-mono.svg

<svg height="48" viewBox="0 0 12.7 12.7" width="48" xmlns="http://www.w3.org/2000/svg"><g fill="#808080" transform="translate(0 -284.3)"><path d="m31.019531 5.2832031-1.058593 2.8183594a17 17 0 0 1 11.039062 15.8984375 17 17 0 0 1 -11.035156 15.908203l1.048828 2.796875a19.999999 19.999999 0 0 0 12.986328-18.705078 19.999999 19.999999 0 0 0 -12.980469-18.7167969zm-14.033203.0117188a19.999999 19.999999 0 0 0 -12.986328 18.7050781 19.999999 19.999999 0 0 0 12.980469 18.716797l1.058593-2.818359a17 17 0 0 1 -11.039062-15.898438 17 17 0 0 1 11.035156-15.9082031zm10.873047 8.4101561-1.054687 2.8125a7.9999994 7.9999994 0 0 1 5.195312 7.482422 7.9999994 7.9999994 0 0 1 -5.191406 7.486328l1.048828 2.800781a11 11 0 0 0 7.142578-10.287109 11 11 0 0 0 -7.140625-10.294922zm-7.716797.007813a11 11 0 0 0 -7.142578 10.287109 11 11 0 0 0 7.140625 10.294922l1.054687-2.8125a7.9999994 7.9999994 0 0 1 -5.195312-7.482422 7.9999994 7.9999994 0 0 1 5.191406-7.486328z" transform="matrix(.26458333 0 0 .26458333 0 284.3)"/><circle cx="6.35" cy="290.64999" r=".529167"/></g></svg>

<?xml version="1.0" encoding="UTF-8" standalone="no"?>
<!-- Created with Inkscape (http://www.inkscape.org/) -->

<svg
   xmlns:dc="http://purl.org/dc/elements/1.1/"
   xmlns:cc="http://creativecommons.org/ns#"
   xmlns:rdf="http://www.w3.org/1999/02/22-rdf-syntax-ns#"
   xmlns:svg="http://www.w3.org/2000/svg"
   xmlns="http://www.w3.org/2000/svg"
   xmlns:sodipodi="http://sodipodi.sourceforge.net/DTD/sodipodi-0.dtd"
   xmlns:inkscape="http://www.inkscape.org/namespaces/inkscape"
   width="48"
   height="48"
   viewBox="0 0 12.7 12.7"
   version="1.1"
   id="svg11382"
   inkscape:version="0.92.4 (5da689c313, 2019-01-14)"
   sodipodi:docname="audio-speaker-mono.svg">
  <defs
     id="defs11376" />
  <sodipodi:namedview
     id="base"
     pagecolor="#ffffff"
     bordercolor="#666666"
     borderopacity="1.0"
     inkscape:pageopacity="0.0"
     inkscape:pageshadow="2"
     inkscape:zoom="1"
     inkscape:cx="27.126599"
     inkscape:cy="24.567554"
     inkscape:document-units="px"
     inkscape:current-layer="layer1"
     showgrid="false"
     units="px"
     inkscape:window-width="1296"
     inkscape:window-height="704"
     inkscape:window-x="70"
     inkscape:window-y="27"
     inkscape:window-maximized="1">
    <inkscape:grid
       type="xygrid"
       id="grid11927" />
  </sodipodi:namedview>
  <metadata
     id="metadata11379">
    <rdf:RDF>
      <cc:Work
         rdf:about="">
        <dc:format>image/svg+xml</dc:format>
        <dc:type
           rdf:resource="http://purl.org/dc/dcmitype/StillImage" />
        <dc:title></dc:title>
      </cc:Work>
    </rdf:RDF>
  </metadata>
  <g
     inkscape:label="Layer 1"
     inkscape:groupmode="layer"
     id="layer1"
     transform="translate(0,-284.3)">
    <path
       style="opacity:1;vector-effect:none;fill:#808080;fill-opacity:1;stroke:none;stroke-width:1.00199997;stroke-linecap:butt;stroke-linejoin:miter;stroke-miterlimit:4;stroke-dasharray:none;stroke-dashoffset:6.5999999;stroke-opacity:1"
       d="M 31.019531 5.2832031 L 29.960938 8.1015625 A 17 17 0 0 1 41 24 A 17 17 0 0 1 29.964844 39.908203 L 31.013672 42.705078 A 19.999999 19.999999 0 0 0 44 24 A 19.999999 19.999999 0 0 0 31.019531 5.2832031 z M 16.986328 5.2949219 A 19.999999 19.999999 0 0 0 4 24 A 19.999999 19.999999 0 0 0 16.980469 42.716797 L 18.039062 39.898438 A 17 17 0 0 1 7 24 A 17 17 0 0 1 18.035156 8.0917969 L 16.986328 5.2949219 z M 27.859375 13.705078 L 26.804688 16.517578 A 7.9999994 7.9999994 0 0 1 32 24 A 7.9999994 7.9999994 0 0 1 26.808594 31.486328 L 27.857422 34.287109 A 11 11 0 0 0 35 24 A 11 11 0 0 0 27.859375 13.705078 z M 20.142578 13.712891 A 11 11 0 0 0 13 24 A 11 11 0 0 0 20.140625 34.294922 L 21.195312 31.482422 A 7.9999994 7.9999994 0 0 1 16 24 A 7.9999994 7.9999994 0 0 1 21.191406 16.513672 L 20.142578 13.712891 z "
       transform="matrix(0.26458333,0,0,0.26458333,0,284.3)"
       id="path12788" />
    <circle
       style="opacity:1;vector-effect:none;fill:#808080;fill-opacity:1;stroke:none;stroke-width:0.26511249;stroke-linecap:butt;stroke-linejoin:miter;stroke-miterlimit:4;stroke-dasharray:none;stroke-dashoffset:6.5999999;stroke-opacity:1"
       id="path13370"
       cx="6.3499999"
       cy="290.64999"
       r="0.52916664" />
  </g>
</svg>
